X: 18504
T: I Buried My Wife And Danced On Her Grave
R: jig
M: 6/8
K: Dmixolydian
|:DED F2G|AdB cAF|~G3 cAG|~F3 GEA|
DED F2G|AdB cAF|~G3 BAG|1 AFD D2A,:|2 AFD D2A||
|:d2e fed|f/g/af ge^c|d2e fed|d^cA d^cA|
d2e fed|f/g/af gfe|d^cA BAG|1 AFD D2A:|2 AFD D2A,||

